src/img/icons/pause-circle.svg

<svg width="32" height="32" viewBox="0 0 32 32" fill="none" xmlns="http://www.w3.org/2000/svg">
<path d="M12.9288 22.25C13.2271 22.25 13.4752 22.1497 13.6729 21.9491C13.871 21.7483 13.97 21.4995 13.97 21.2029V10.797C13.97 10.5004 13.8692 10.2516 13.6675 10.0508C13.4659 9.85024 13.2159 9.74996 12.9175 9.74996C12.6192 9.74996 12.371 9.85024 12.1729 10.0508C11.9752 10.2516 11.8763 10.5004 11.8763 10.797V21.2029C11.8763 21.4995 11.9771 21.7483 12.1788 21.9491C12.3804 22.1497 12.6304 22.25 12.9288 22.25ZM19.0825 22.25C19.3809 22.25 19.629 22.1497 19.8271 21.9491C20.0249 21.7483 20.1238 21.4995 20.1238 21.2029V10.797C20.1238 10.5004 20.0229 10.2516 19.8213 10.0508C19.6196 9.85024 19.3696 9.74996 19.0713 9.74996C18.7729 9.74996 18.5249 9.85024 18.3271 10.0508C18.129 10.2516 18.03 10.5004 18.03 10.797V21.2029C18.03 21.4995 18.1309 21.7483 18.3325 21.9491C18.5342 22.1497 18.7842 22.25 19.0825 22.25ZM16.01 31.8333C13.8181 31.8333 11.7618 31.4177 9.84127 30.5866C7.92071 29.7555 6.24391 28.623 4.81085 27.1891C3.3778 25.755 2.24544 24.0782 1.41377 22.1587C0.582381 20.239 0.166687 18.1841 0.166687 15.9941C0.166687 13.8041 0.582243 11.7472 1.41335 9.82329C2.24446 7.89913 3.37697 6.2244 4.81085 4.79913C6.24502 3.37385 7.92183 2.24538 9.84127 1.41371C11.761 0.58232 13.8159 0.166626 16.0059 0.166626C18.1959 0.166626 20.2528 0.582181 22.1767 1.41329C24.1009 2.2444 25.7756 3.37232 27.2009 4.79704C28.6261 6.22177 29.7546 7.89718 30.5863 9.82329C31.4177 11.7494 31.8334 13.805 31.8334 15.99C31.8334 18.1819 31.4178 20.2382 30.5867 22.1587C29.7556 24.0793 28.6277 25.7544 27.2029 27.1841C25.7782 28.6138 24.1028 29.7461 22.1767 30.5808C20.2506 31.4158 18.195 31.8333 16.01 31.8333ZM16.0088 29.7391C19.8304 29.7391 23.0743 28.4033 25.7404 25.7316C28.4063 23.06 29.7392 19.8132 29.7392 15.9912C29.7392 12.1695 28.4082 8.92565 25.7463 6.25954C23.0843 3.59371 19.8356 2.26079 16 2.26079C12.1839 2.26079 8.94002 3.59177 6.26835 6.25371C3.59669 8.91566 2.26085 12.1644 2.26085 16C2.26085 19.8161 3.59669 23.06 6.26835 25.7316C8.94002 28.4033 12.1868 29.7391 16.0088 29.7391Z" fill="#131212"/>
</svg>

<svg xmlns="http://www.w3.org/2000/svg" viewBox="0 0 32 32">
  <path fill="currentColor" d="M12.929 22.25a1.02 1.02 0 0 0 1.041-1.047V10.797c0-.297-.1-.545-.303-.746a1.022 1.022 0 0 0-.75-.301 1.022 1.022 0 0 0-1.041 1.047v10.406c0 .297.101.545.303.746.201.2.451.301.75.301Zm6.153 0a1.022 1.022 0 0 0 1.041-1.047V10.797c0-.297-.1-.545-.302-.746a1.022 1.022 0 0 0-.75-.301 1.02 1.02 0 0 0-1.041 1.047v10.406c0 .297.1.545.302.746.202.2.452.301.75.301Zm-3.072 9.583c-2.192 0-4.248-.415-6.169-1.246a16.046 16.046 0 0 1-5.03-3.398 16.093 16.093 0 0 1-3.397-5.03C.582 20.239.167 18.184.167 15.994s.415-4.247 1.246-6.17c.831-1.925 1.964-3.6 3.398-5.025a16.195 16.195 0 0 1 5.03-3.385C11.761.582 13.816.167 16.006.167s4.247.415 6.17 1.246c1.925.831 3.6 1.96 5.025 3.384 1.425 1.425 2.554 3.1 3.385 5.026.832 1.926 1.247 3.982 1.247 6.167 0 2.192-.415 4.248-1.246 6.169a16.101 16.101 0 0 1-3.384 5.025c-1.425 1.43-3.1 2.562-5.026 3.397-1.926.835-3.982 1.252-6.167 1.252Zm-.001-2.094c3.821 0 7.065-1.336 9.731-4.007 2.666-2.672 4-5.919 4-9.74 0-3.823-1.332-7.066-3.994-9.732-2.662-2.666-5.91-4-9.746-4-3.816 0-7.06 1.332-9.732 3.994C3.597 8.916 2.261 12.164 2.261 16c0 3.816 1.336 7.06 4.007 9.732 2.672 2.671 5.919 4.007 9.74 4.007Z"/>
</svg>
